X: 23138
T: Lazy Man's Axe, The
R: hornpipe
M: 4/4
K: Dmajor
|d>e|:f>d e>c d>c A>G|(3FGA G>ED>CA,>B,|=C2 C>B, C>D E>G|F>A c>e d>c d> e|
f>d e>c d>c A>G|(3FGA G>ED>CA,>B,|=C2 C>B, C>D E>G|1 F2 D2 D2 d>e:|2 F2 D2 D2 z2|
|:F>A c>e d>c d>e|f>d e>c d>f a>f|g2 g>f g>b g>e|g>f d>B c>A G>E|
[1 F>A c>e d>c d>e|f>d e>c d>f a>f|g2 g>f g>b a>g|f2 d2 d2 z2:|
[2 F>A c>e d>c A>G|(3FGA GED>CA,>B,|=C2 C>B, C>D E>G|F2 D2 D2 z2|

